X:158 
T:Paddy Fahy's Reel 1
B:CRE5.112 (Ril PhÃÂÃÂÃÂÃÂ¡idÃÂÃÂÃÂÃÂ­ UÃÂÃÂÃÂÃÂ­ Fhathaigh (i))
F:file ID: cre.5/158pad_f_R1
N:This is CRE's notation but the second part doesn't make
any sense to me - seems like it should repeat but it doesn't. I
don't know what the one-measure tag is supposed to represent but
it might be an alternate version of measure 1. - In the audio file
I'll include a version that will have (1) the "tag" as the first
measure (2) a repeated B part (3) no grace notes.
L:1/8
M:4/4
Q:180
R:reel
K:C
cBcG EGcG|FA,DF EFGA|_B3G ~c3A|Bgdc BGBd|
cBcG EGcG|FA,DF EFGA|_B2 Gc cBGF|DF_B,D C2 EG:|
cBce g^fag|^fgec G=FEG|F3D E/F/G cA|Bcde fdBd|
cBce g^fag|^fgec G=FEG|FG/F/ DF EG,CE|FDB,D C4||
"tag"c2 cB cGEG|]

%%%

